!!! OTL: Literature20
!!! Chapter: 5
!!! Section: I
!!! Page: 348
!!! Mode: 
!!! Encoder: DJB
**kern
*staff1
*I"Piano
=1-
*clefG2
*k[f#]
*G:
*met(c|)
*M2/2
4g/
8e/L
8e/J
8d/L
8d/
8e/
8e/J
=2
8g/L
8g/
8g/
8g/J
2b\
=3
4g/
8e/L
8e/J
8d/L
8d/
8e/
8e/J
=4
4g/
4a/
2g/
=5
4g/
8e/L
8e/J
8d/L
8d/
8e/
8e/J
=6
8g/L
8g/
8g/
8g/J
4b\
8d/L
8e/J
=7
!!linebreak:original
4g/
8e/L
8e/J
8d/L
8d/
8e/
8e/J
=8
4g/
4a/
2g/
==
*-
